svgs/sharp-light/chart-mixed-up-circle-dollar.svg

<svg xmlns="http://www.w3.org/2000/svg" viewBox="0 0 576 512"><!--! Font Awesome Pro 6.6.0 by @fontawesome - https://fontawesome.com License - https://fontawesome.com/license (Commercial License) Copyright 2024 Fonticons, Inc. --><path d="M416 0L400 0l0 32 16 0 71 0L320.2 171 202.5 68l-9.6-8.4-10.3 7.5-176 128 18.8 25.9L191.1 100.5 309.5 204l10.3 9 10.5-8.7L512 52.8l0 75.2 0 16 32 0 0-16 0-112 0-16L528 0 416 0zm96 32s0 0 0 0s0 0 0 0s0 0 0 0zM80 352l0 96-32 0 0-96 32 0zM48 320l-32 0 0 32 0 96 0 32 32 0 32 0 32 0 0-32 0-96 0-32-32 0-32 0zm128-64l32 0 0 192-32 0 0-192zm-32-32l0 32 0 192 0 32 32 0 32 0 32 0 0-32 0-192 0-32-32 0-32 0-32 0zM320 368a112 112 0 1 1 224 0 112 112 0 1 1 -224 0zm256 0a144 144 0 1 0 -288 0 144 144 0 1 0 288 0zM408.1 339c-.1-1.9 .3-2.9 .8-3.6c.6-.9 1.8-2.1 4.2-3.4c5.1-2.7 12.5-4.1 18.7-4c8.2 .1 17.1 1.8 26.4 4.1l15.5 3.9 7.7-31.1L465.9 301c-5.6-1.4-11.6-2.7-17.9-3.7l0-9.4 0-16-32 0 0 16 0 9.5c-6.1 1.2-12.3 3.2-18 6.3c-11.8 6.3-23 18.4-21.8 37.2c1 16 11.7 25.3 21.6 30.7c8.8 4.7 19.7 7.8 28.6 10.3l1.8 .5c10.3 2.9 17.9 5.2 23.2 8.3c4.5 2.7 4.7 4.2 4.7 5.6c.1 2.4-.5 3.7-1 4.5c-.6 1-1.8 2.2-4 3.3c-4.7 2.5-11.8 3.8-18.5 3.6c-9.5-.3-18.5-3.1-29.9-6.8c-1.9-.6-3.8-1.2-5.8-1.8l-15.3-4.8L372 425.2l15.3 4.8c1.6 .5 3.3 1 5 1.6c0 0 0 0 0 0s0 0 0 0c7 2.3 15.1 4.8 23.7 6.6l0 11.4 0 16 32 0 0-16 0-10.8c6.2-1.1 12.5-3.1 18.3-6.2c12.1-6.5 22.3-18.7 21.7-36.9c-.5-16.2-10.3-26.3-20.5-32.3c-9.4-5.6-21.2-8.9-30.5-11.5l-.2 0c-10.4-2.9-18.3-5.2-23.9-8.2c-4.8-2.6-4.8-4-4.8-4.5c0 0 0 0 0-.1z"/></svg>

<svg xmlns="http://www.w3.org/2000/svg" viewBox="0 0 576 512"><!--! Font Awesome Pro 6.4.2 by @fontawesome - https://fontawesome.com License - https://fontawesome.com/license (Commercial License) Copyright 2023 Fonticons, Inc. --><path d="M416 0H400V32h16 71L320.2 171 202.5 68l-9.6-8.4-10.3 7.5-176 128 18.8 25.9L191.1 100.5 309.5 204l10.3 9 10.5-8.7L512 52.8V128v16h32V128 16 0H528 416zm96 32l0 0h0v0zM80 352v96H48V352H80zM48 320H16v32 96 32H48 80h32V448 352 320H80 48zm128-64h32V448H176V256zm-32-32v32V448v32h32 32 32V448 256 224H208 176 144zM320 368a112 112 0 1 1 224 0 112 112 0 1 1 -224 0zm256 0a144 144 0 1 0 -288 0 144 144 0 1 0 288 0zM408.1 339c-.1-1.9 .3-2.9 .8-3.6c.6-.9 1.8-2.1 4.2-3.4c5.1-2.7 12.5-4.1 18.7-4c8.2 .1 17.1 1.8 26.4 4.1l15.5 3.9 7.7-31.1L465.9 301c-5.6-1.4-11.6-2.7-17.9-3.7V288 272H416v16 9.5c-6.1 1.2-12.3 3.2-18 6.3c-11.8 6.3-23 18.4-21.8 37.2c1 16 11.7 25.3 21.6 30.7c8.8 4.7 19.7 7.8 28.6 10.3l1.8 .5c10.3 2.9 17.9 5.2 23.2 8.3c4.5 2.7 4.7 4.2 4.7 5.6c.1 2.4-.5 3.7-1 4.5c-.6 1-1.8 2.2-4 3.3c-4.7 2.5-11.8 3.8-18.5 3.6c-9.5-.3-18.5-3.1-29.9-6.8c-1.9-.6-3.8-1.2-5.8-1.8l-15.3-4.8L372 425.2l15.3 4.8c1.6 .5 3.3 1 5 1.6l0 0 0 0c7 2.3 15.1 4.8 23.7 6.6v11.4 16h32v-16V438.7c6.2-1.1 12.5-3.1 18.3-6.2c12.1-6.5 22.3-18.7 21.7-36.9c-.5-16.2-10.3-26.3-20.5-32.3c-9.4-5.6-21.2-8.9-30.5-11.5l-.2 0c-10.4-2.9-18.3-5.2-23.9-8.2c-4.8-2.6-4.8-4-4.8-4.5l0-.1z"/></svg>
